X:1
T:Virginia Beach, 11.10.11.10
T:Virginia Beach, 11.10.11.10
T:William Fiske Sherwin, 1881
T:Public Domain Courtesy of the Cyber Hymnal™
C:William Fiske Sherwin, 1881
Z:Public Domain
Z:Courtesy of the Cyber Hymnal™
%%score ( 1 2 ) ( 3 4 )
L:1/8
Q:1/4=130
M:2/2
K:Bb
V:1 treble 
V:2 treble 
V:3 bass 
V:4 bass 
V:1
 F2 | [DB]4 [EB]4 | [DB]6 [Fd]2 | [Ge]2 [Fd]2 [Fc]2 [FB]2 | [EB]4 [EA]2 [DB]2 | [Fc]4 [=Ec]4 | %6
 [Fc]6 [Fd]2 | [Ge]2 [Gc]2 [FB]2 [EA]2 | [DB]6 [DF]2 | [FB]4 [Fc]4 | [Fd]6 [Fe]2 | %11
 [Ff]2 [Fd]2 [Gc]2 [=EB]2 | [FA]4 [CG]2 [CF]2 | [FB]4 [_Ad]4 | [Ge]6 [Gc]2 | %15
 [FB]2 [DF]2 [Fd]2 [Ec]2 | [DB]6 |] %17
V:2
 F2 | x8 | x8 | x8 | x8 | x8 | x8 | x8 | x8 | x8 | x8 | x8 | x8 | x8 | x8 | x8 | x6 |] %17
V:3
 F,2 | [B,,F,]4 [E,G,]4 | [B,,F,]6 [B,,B,]2 | [B,,B,]2 [B,,B,]2 [C,A,]2 [D,B,]2 | %4
 [F,C]4 [F,C]2 [F,B,]2 | [F,A,]4 [C,G,]4 | [F,A,]6 B,2 | [E,B,]2 [E,E]2 [F,D]2 [F,C]2 | %8
 [B,,B,]6 [B,,B,]2 | [D,B,]4 [F,A,]4 | [B,,B,]6 [C,A,]2 | [D,B,]2 [B,,B,]2 [E,B,]2 [G,C]2 | %12
 [F,C]4 [E,A,]2 [E,A,]2 | [D,B,]4 [B,,B,]4 | [E,B,]6 [E,E]2 | [F,D]2 [F,B,]2 [F,A,]2 [F,A,]2 | %16
 [B,,B,]6 |] %17
V:4
 F,2 | x8 | x8 | x8 | x8 | x8 | x6 B,2 | x8 | x8 | x8 | x8 | x8 | x8 | x8 | x8 | x8 | x6 |] %17

